X: 22530
T: Lady Gordon's
R: reel
M: 4/4
K: Dmajor
FEDF A2~A2|defd efdB|BAFB ABdf|afea fdd2|
D2~D2DEFA|defd efdB|BAFB ABdf|afea fddc|
d2fa~a2ba|afef dB~B2|defa afdB|ABde fddc|
defa ~a2ba|afed B/c/d ef|fedB AdFd|ABde fa~a2||

